X: 36169
T: Scotsman Over The Border, The
R: jig
M: 6/8
K: Dmixolydian
|:DDD FDF|AFA d2A|BBB BAB|def edB|
ADD FDF|AFA d2A|BdB AFA|1 dAF EEE:|2 dAF EFD||
|:dfa afa|bge edB|dfa afe|bge e2B|
dfa afa|bge edB|d2B AFA|1 dAF EFD:|2 dAF EEE||

